X:1
T:109 - Por Pouco Tempo
T:Letra: Jane Fox Crewdson (1809-1863)
T:Trad.: Stuart Edmund McNair (1867-1959)
T:MÃºsica: Ira David Sankey (1840-1908)
L:1/8
Q:1/4=90
M:4/4
K:Emaj
V:1
B, G,B, | "E"G3 G FE "A"CE | C2 "E"B,2 z B, "(B)"DF | "B7"A3 A A^A BF | "E"G4 z B, G,B, | G3 G FE "A"CE | C2 "E"B,2 z B, EG | "E"BG "F#m"EF "E/B"(GE) "B7"F2 | ("E"E2 "A"E2 "E"HE) |]
w:1.~An-sei-oa paz, que qual um ri-o cor-re, E no de-ser-to faz bro-tar a flor; An-sei-oa fÃ© que, nes-te pou-co tem-po, Des-can-sa no ben-di-to Sal_va-dor.__
w:2.~HÃ¡ pou-co tem-po pra ve-lar, o-ran-do, E con-trao i-ni-mi-go ba-ta-lhar; HÃ¡ pou-co tem-po pa-raa-qui, cho-ran-do, Lan-Ã§ar se-men-te, pra de-pois_ cei-far.__
w:3.~Por pou-co tem-po,as lÃ¢m-pa-das ze-lan-do, De-ve-mos, bem des-per-tos, es-pe-rar; As-sim, pois, pres-su-ro-soo noi-vo vin-do, Com E-le nÃ³s i-re-mos pra_ seu lar.__
W:
W:
W:1. Anseio a paz, que qual um rio corre,
W:E no deserto faz brotar a flor;
W:Anseio a fÃ© que, neste pouco tempo,
W:Descansa no bendito Salvador.
W:
W:2. HÃ¡ pouco tempo pra velar, orando,
W:E contra o inimigo batalhar;
W:HÃ¡ pouco tempo para aqui, chorando,
W:LanÃ§ar semente, pra depois ceifar.
W:
W:
W:
W:3. Por pouco tempo, as lÃ¢mpadas zelando,
W:Devemos, bem despertos, esperar;
W:Assim, pois, pressuroso o noivo vindo,
W:Com Ele nÃ³s iremos pra seu lar.
W:
W:

